X: 00202
T: Uncle Bob's Boogie
C: Donne H\'ebert
%D:1981
B: Grumbling Old Woman tunebook
B: Portland Collection, Vol.3
%R: reel
Z: 2020 John Chambers <jc:trillian.mit.edu>
M: C|
L: 1/8
K: A
|:\
"Am"AGA(c AG)EG | Ac(AG E)GED | "Dm"A,D3 D3(D | "E7"ED)EG AGEG |
"Am"AcA(G EG)A(c | A)GE(G A)GE(D | "Dm"A,)D3 D2E(D | "Am"C)A,B,(G, [E2-A,2-][E2A,2]) :|
|:\
"Dm"Ad2[d-D-] [d2D2](c2 | "Am"c)Bcd cBAG | "Dm"Ad3 d2e2- | "Am"e(^de)f e=dcB |
"Dm"Ad2[d-D-] [d2D2](c2 | "Am"c)Bcd cBA2 | "Dm(D)"abag "Em(G)"edB2 | "Am"A4 A4 :|
%%begintext align
%% I had forgotten I'd written this one when Jane Rothfield called me out of the blue and ask me to ID a
%% tune on a cassette from a Yankee Ingenity dance. "That's my payback tune for Bob!" I said. We've been
%% playing it ever since.
%%endtext

%%sep 1 1 500

%%sep 1 1 500

